static/data/images/sponsors/leadcode.svg

<svg fill="none" height="256" viewBox="0 0 669 256" width="669" xmlns="http://www.w3.org/2000/svg"><g fill="#000"><path d="m214.496 202.236v7.374h-37.881v-67.915h7.832v60.541z"/><path d="m266.553 187h-42.092c1.367 9.998 8.707 16.298 18.694 16.298 6.366 0 11.945-2.233 15.949-6.408l4.211 4.467c-4.889 5.433-12.131 8.535-20.751 8.535-15.172 0-25.64-10.573-25.64-25.809 0-15.235 10.567-25.808 25.542-25.808 16.649-.087 24.875 11.364 24.087 28.725zm-6.848-6.203c-.492-9.802-7.143-16.005-17.228-16.005-9.79 0-16.835 6.311-18.016 16.005z"/><path d="m308.942 201.748c-4.113 5.53-10.665 8.241-18.891 8.241-10.666 0-17.524-6.788-17.524-15.626 0-8.925 7.143-14.553 19.285-14.65h16.933v-3.004c0-7.471-4.693-11.939-13.805-11.939-5.677 0-10.96 2.136-16.342 5.823l-3.227-5.53c6.651-4.37 12.24-6.886 21.046-6.886 12.722 0 19.767 6.691 19.865 17.654l.098 33.768h-7.438zm-.098-9.792v-6.116h-16.048c-8.608 0-13.115 2.624-13.115 8.252s4.605 9.315 11.847 9.315c8.707 0 15.368-4.37 17.316-11.451z"/><path d="m377.099 178.075v31.534h-7.635v-29.495c0-9.022-5.48-14.357-14.581-14.357-10.184.097-16.441 6.691-17.327 16.396v27.456h-7.636v-51.139h7.636v11.256c3.62-7.765 10.567-11.451 19.963-11.549 12.339.011 19.58 7.58 19.58 19.898z"/><path d="m447.665 151.389-4.703 5.92c-5.284-5.335-12.722-8.545-20.259-8.545-15.467 0-27.894 11.842-27.894 26.785 0 14.845 12.427 26.784 27.894 26.784 7.537 0 14.877-3.101 20.259-8.154l4.791 5.335c-6.749 6.311-15.96 10.475-25.444 10.475-19.766 0-35.431-15.236-35.431-34.44 0-19.02 15.862-34.061 35.727-34.061 9.396.011 18.497 3.796 25.06 9.901z"/><path d="m504.21 183.996c0 15.334-10.862 25.906-26.133 25.906-15.27 0-26.133-10.572-26.133-25.906 0-15.235 10.863-25.71 26.133-25.71 15.271 0 26.133 10.475 26.133 25.71zm-44.63.098c0 11.256 7.733 19.02 18.497 19.02s18.498-7.764 18.498-19.02c0-11.158-7.734-18.923-18.498-18.923s-18.497 7.765-18.497 18.923z"/><path d="m563.498 209.61h-7.635v-10.964c-3.818 7.179-10.863 11.354-20.062 11.354-14.68 0-24.864-10.768-24.864-26.004 0-15.333 10.184-25.906 24.765-25.906 9.2 0 16.343 4.175 20.161 11.451v-31.924h7.635zm-7.635-25.418c0-11.159-7.734-19.216-18.596-19.216-10.961 0-18.695 8.057-18.695 19.216 0 11.06 7.734 19.02 18.695 19.02 10.862 0 18.596-7.96 18.596-19.02z"/><path d="m623.944 187h-42.093c1.368 9.998 8.718 16.298 18.695 16.298 6.366 0 11.945-2.233 15.948-6.408l4.212 4.467c-4.89 5.433-12.142 8.535-20.751 8.535-15.172 0-25.641-10.573-25.641-25.809 0-15.235 10.567-25.808 25.553-25.808 16.638-.087 24.853 11.364 24.077 28.725zm-6.859-6.203c-.492-9.802-7.143-16.005-17.229-16.005-9.79 0-16.834 6.311-18.016 16.005z"/><path d="m148.94 51.4087v29.6254c0 6.5714.427 9.4558-4.725 14.65-1.477 1.4857-3.041 2.6568-4.693 3.546-2.669 1.0299-5.349.8779-9.418.8779h-7.264-8.051-16.4514c-3.5879 0-6.5305 2.874-6.5305 6.387v38.312c0 3.524 2.9316 6.408 6.5305 6.408h11.2564 18.475 11.53c3.588 0 6.508-2.873 6.508-6.408v-29.626c0-6.571-.437-9.455 4.726-14.65 1.466-1.4853 3.041-2.6564 4.692-3.5456 2.67-1.0302 5.35-.8783 9.419-.8783h7.263 8.04 16.441c3.588 0 6.52-2.8737 6.52-6.3871v-38.3113c0-3.5242-2.932-6.4087-6.52-6.4087h-11.256-18.465-11.518c-3.588 0-6.509 2.8845-6.509 6.4087z"/><path d="m50.6772 160.682h34.1727c3.1504 0 5.7101 2.538 5.7101 5.65v34.375c0 3.112-2.5488 5.639-5.7101 5.639h-34.1727c-3.1394 0-5.6772-2.527-5.6772-5.639v-34.375c0-3.112 2.5269-5.65 5.6772-5.65z"/></g></svg>

<svg width="669" height="256" viewBox="0 0 669 256" fill="none" xmlns="http://www.w3.org/2000/svg">
<path d="M214.496 202.236V209.61H176.615V141.695H184.447V202.236H214.496Z" fill="black"/>
<path d="M266.553 187H224.461C225.828 196.998 233.168 203.298 243.155 203.298C249.521 203.298 255.1 201.065 259.104 196.89L263.315 201.357C258.426 206.79 251.184 209.892 242.564 209.892C227.392 209.892 216.924 199.319 216.924 184.083C216.924 168.848 227.491 158.275 242.466 158.275C259.115 158.188 267.341 169.639 266.553 187ZM259.705 180.797C259.213 170.995 252.562 164.792 242.477 164.792C232.687 164.792 225.642 171.103 224.461 180.797H259.705Z" fill="black"/>
<path d="M308.942 201.748C304.829 207.278 298.277 209.989 290.051 209.989C279.385 209.989 272.527 203.201 272.527 194.363C272.527 185.438 279.67 179.81 291.812 179.713H308.745V176.709C308.745 169.238 304.052 164.77 294.94 164.77C289.263 164.77 283.98 166.906 278.598 170.593L275.371 165.063C282.022 160.693 287.611 158.177 296.417 158.177C309.139 158.177 316.184 164.868 316.282 175.831L316.38 209.599H308.942V201.748V201.748ZM308.844 191.956V185.84H292.796C284.188 185.84 279.681 188.464 279.681 194.092C279.681 199.72 284.286 203.407 291.528 203.407C300.235 203.407 306.896 199.037 308.844 191.956Z" fill="black"/>
<path d="M377.099 178.075V209.609H369.464V180.114C369.464 171.092 363.984 165.757 354.883 165.757C344.699 165.854 338.442 172.448 337.556 182.153V209.609H329.92V158.47H337.556V169.726C341.176 161.961 348.123 158.275 357.519 158.177C369.858 158.188 377.099 165.757 377.099 178.075Z" fill="black"/>
<path d="M447.665 151.389L442.962 157.309C437.678 151.974 430.24 148.764 422.703 148.764C407.236 148.764 394.809 160.606 394.809 175.549C394.809 190.394 407.236 202.333 422.703 202.333C430.24 202.333 437.58 199.232 442.962 194.179L447.753 199.514C441.004 205.825 431.793 209.989 422.309 209.989C402.543 209.989 386.878 194.753 386.878 175.549C386.878 156.529 402.74 141.488 422.605 141.488C432.001 141.499 441.102 145.284 447.665 151.389Z" fill="black"/>
<path d="M504.21 183.996C504.21 199.33 493.348 209.902 478.077 209.902C462.807 209.902 451.944 199.33 451.944 183.996C451.944 168.761 462.807 158.286 478.077 158.286C493.348 158.286 504.21 168.761 504.21 183.996ZM459.58 184.094C459.58 195.35 467.313 203.114 478.077 203.114C488.841 203.114 496.575 195.35 496.575 184.094C496.575 172.936 488.841 165.171 478.077 165.171C467.313 165.171 459.58 172.936 459.58 184.094Z" fill="black"/>
<path d="M563.498 209.61H555.863V198.646C552.045 205.825 545 210 535.801 210C521.121 210 510.937 199.232 510.937 183.996C510.937 168.663 521.121 158.09 535.702 158.09C544.902 158.09 552.045 162.265 555.863 169.541V137.617H563.498V209.61ZM555.863 184.192C555.863 173.033 548.129 164.976 537.267 164.976C526.306 164.976 518.572 173.033 518.572 184.192C518.572 195.252 526.306 203.212 537.267 203.212C548.129 203.212 555.863 195.252 555.863 184.192Z" fill="black"/>
<path d="M623.944 187H581.851C583.219 196.998 590.569 203.298 600.546 203.298C606.912 203.298 612.491 201.065 616.494 196.89L620.706 201.357C615.816 206.79 608.564 209.892 599.955 209.892C584.783 209.892 574.314 199.319 574.314 184.083C574.314 168.848 584.881 158.275 599.867 158.275C616.505 158.188 624.72 169.639 623.944 187ZM617.085 180.797C616.593 170.995 609.942 164.792 599.856 164.792C590.066 164.792 583.022 171.103 581.84 180.797H617.085Z" fill="black"/>
<path d="M148.94 51.4087V81.0341C148.94 87.6055 149.367 90.4899 144.215 95.6841C142.738 97.1698 141.174 98.3409 139.522 99.2301C136.853 100.26 134.173 100.108 130.104 100.108H122.84H114.789H98.3376C94.7497 100.108 91.8071 102.982 91.8071 106.495V144.807C91.8071 148.331 94.7387 151.215 98.3376 151.215H109.594H128.069H139.599C143.187 151.215 146.107 148.342 146.107 144.807V115.181C146.107 108.61 145.67 105.726 150.833 100.531C152.299 99.0457 153.874 97.8746 155.525 96.9854C158.195 95.9552 160.875 96.1071 164.944 96.1071H172.207H180.247H196.688C200.276 96.1071 203.208 93.2334 203.208 89.72V51.4087C203.208 47.8845 200.276 45 196.688 45H185.432H166.967H155.449C151.861 45 148.94 47.8845 148.94 51.4087Z" fill="black"/>
<path d="M50.6772 160.682H84.8499C88.0003 160.682 90.56 163.22 90.56 166.332V200.707C90.56 203.819 88.0112 206.346 84.8499 206.346H50.6772C47.5378 206.346 45 203.819 45 200.707V166.332C45 163.22 47.5269 160.682 50.6772 160.682Z" fill="black"/>
</svg>
